X:1
T:Regina coeli - Porta
T:#
%%score { 1 | 2 } { 3 | 4 }
L:1/8
Q:1/4=200
M:none
K:F
V:1 treble-8 nm="Tenor I" snm="T"
V:2 treble-8 
V:3 bass nm="Bass I" snm="B"
V:4 bass 
V:1
 z8"^Regina coeli""^Costanzo Porta\n(c.1529-1601)" c8 | d8 c8 | d8 e8 | z4 (f6 ed e4) | %4
w: Re-|gi- na|coe- li,|Re\- * * *|
 c4 c4 (d6 e2 | f8) e8 | z8 d8 |[M:4/2][K:treble-8] (d6 e2 f4) c4 | z4 c8 d4- | d4 (c8 =B4) | %10
w: gi- na coe\- *|* li,|lae-|ta\- * * re.|Al- le\-|* lu\- *|
 c8 z8 | F8 A4 F4 | f12 f4 | d12 c4 | z4 c4 (c8 | d8) c8 | z4 d8 e4 | f16- | f8 d8 | z8 c8 | %20
w: ia.|Qui- a quem|me- ru-|i- sti|por- ta\-|* re.|Al- le-|lu\-|* ia.|Re-|
 d8 e8- | (e4 d2 c2 d4 e4) | f4 (c6 BA B4) | A4 F8 E4 | F8 z8 | z4 c8 c4 | d8 c8- | c8 z4 d4- | %28
w: sur- re\-||xit, si\- * * *|cut di\- *|xit,|si- cut|di- xit.|* Al\-|
 d4 f4 (d8 | c8) c8 | z8 c8 | f4 f4 (e8 | f8) f4 (g4- | g2 f2 f8 e4) | f16 | z8 F8 | %36
w: * le- lu\-|* ia.|O-|ra pro no\-|* bis De\-||um.|Al-|
 F4 (A6 B2 c4) | c4 F4 c8- | c4 (d6 e2[Q:1/4=198] f4) |[Q:1/4=196] d8 z4[Q:1/4=189] c4[Q:1/4=192] | %40
w: le- lu\- * *|ia, al- le\-|* lu\- * *|ia, al-|
[Q:1/4=186] (A8[Q:1/4=180] d8)[Q:1/4=184] |[Q:1/4=174] d16 |[Q:1/4=170] c16 |] %43
w: le\- *|lu-|ia.|
V:2
 G8 (A8- | A4 G2 F2 G4) A4 | (F2 G2 A2 B2 c8) | c8 z4 (c4- | c2 B2 A2 G2 F4) F4- | F2 G2 A2 B2 c8 | %6
w: Re- gi\-|* * * * na|coe\- * * * *|li lae\-|* * * * * ta\-||
 A8 z4 G4 |[M:4/2][K:treble-8] (B8 c8) | A12 A4 | G4 (A8 G2 F2 | G8) A8 | z4 F8 A4 | A8 A4 A4 | %13
w: re, lae-|ta\- *|re. Al-|le- lu\- * *|* ia.|Qui- a|quem me- ru-|
 (B4 A2 G2 F2 G2 A2 B2) | c8 A4 A4 | (B8 A8) | G8 z8 | c8 A8- | A8 (B6 A2 | G8) A8 | z16 | z16 | %22
w: i\- * * * * * *|* sti por-|ta\- *|re.|Al- le\-|* lu\- *|* ia.|||
 z8 F8- | F8 G8 | (A8 B8) | A4 A8 A4 | (G2 F2 F8 E4) | F8 A8 | A8 B8 | G8 A8 | z8 A8 | A4 A4 c8- | %32
w: Re\-|* sur-|re\- *|xit, si- cut|di\- * * *|xit. Al-|le- lu\-|* ia.|O-|ra pro no\-|
 c4 c4 d8- | d4 c4 z4 c4 | A8 d8 | c16 | z4 F4 F4 (A4- | A2 B2 c4) A8- | A8 z4 A4 | G4 F8 E4 | %40
w: * bis De\-|* um. Al-|le- lu-|ia.|Al- le- lu\-|* * * ia,|* al-|le- lu- ia,|
 z4 F4 A8 | B16 | A16 |] %43
w: al- le-|lu-|ia.|
V:3
 z16 | z16 | z4 F,4 G,8 | F,8 (G,8 | A,8) A,4 B,4 | (A,6 G,F, G,8) | F,8 z4 B,4- | %7
w: ||Re- gi-|na coe\-|* li lae-|ta\- * * *|re. Al\-|
[M:4/2] B,4 G,4 (A,2 G,2 A,2 B,2 | C6 B,2 A,2 G,2 F,4- | F,4 E,4) F,8 | z8 F,8 | C8 C8 | D12 C4 | %13
w: * le- lu\- * * *||* * ia.|Qui-|a quem|me- ru-|
 B,8 A,4 A,4 | (A,4 G,4) F,8 | z16 | (B,8 G,8) | (A,6 B,2 C4) (F,4- | %18
w: i- sti por-|ta\- * re.||Al\- *|le\- * * lu\-|
 F,2 G,2 A,2 F,2 G,2 F,2 F,4- | F,2 E,D, E,4 F,6 E,2 | D,8) C,8 | z8 B,8 | C8 D8- | D4 A,4 z4 C4- | %24
w: ||* ia.|Re-|sur- re\-|* xit, si\-|
 C4 F,4 G,8 | F,8 z8 | (B,8 G,8) | (A,6 B,2 C4) F,4- | (F,2 G,2 A,2 F,2 G,2 F,2 F,4- | %29
w: * cut di-|xit.|Al\- *|le\- * * lu\-||
 F,4 E,4) F,8 | z8 z4 C4- | C4 F,4 G,8 | A,8 (B,8- | B,4 A,4) G,8 | F,8 z4 F,4- | %35
w: * * ia.|O\-|* ra pro|no- bis|* * De-|um. Al\-|
 F,4 F,4 (A,6 B,2 | C8) C4 F,4- | F,4 (A,6 B,2 C4) | (F,8 A,8 | B,6 A,2 G,8) | F,16- | F,16 | %42
w: * le- lu\- *|* ia, al\-|* le\- * *|lu\- *||ia.||
 F,16 |] %43
w: |
V:4
 C,8 (F,8- | F,4 E,2 D,2 E,4) F,4 | D,8 C,8 | z8 C,8 | (F,6 E,2 D,2 C,2 D,4- | D,4) D,4 C,8 | %6
w: Re- gi\-|* * * * na|coe- li,|Re-|gi\- * * * *|* na coe-|
 D,4 F,4 G,8- |[M:4/2] G,8 F,8 | z4 (F,6 E,2 D,2 C,2 | B,,4) C,4 D,8 | C,8 z8 | z8 F,8- | %12
w: li lae- ta\-|* re.|Al\- * * *|* le- lu-|ia.|Qui\-|
 F,4 D,4 F,8 | G,8 D,4 F,4- | F,4 E,4 F,8 | B,,8 F,8 | z16 | F,12 D,4 | (D,8 B,,8) | C,8 z8 | %20
w: * a quem|me- ru- i\-|* sti por-|ta- re.||Al- le-|lu\- *|ia.|
 z4 F,4 G,8 | A,8 G,8 | (F,8 D,8- | D,4) D,4 C,8 | F,,8 z8 | z8 F,8 | B,,8 C,8 | %27
w: Re- sur-|re- xit,|si\- *|* cut di-|xit,|si-|cut di-|
 F,,4 (F,6 E,2 D,2 C,2) | D,4 D,4 B,,8 | C,8 z8 | z8 F,8- | F,4 D,4 C,8 | (F,8 B,,6 C,2 | %33
w: xit. Al\- * * *|* le- lu-|ia.|O\-|* ra pro|no\- * *|
 D,4) F,4 (C,8 | D,8) B,,8 | z16 | z16 | z8 F,8- | F,4 D,4 (D,8 | B,,8) C,8 | z4 D,8 D,4 | B,,16 | %42
w: * bis De\-|* um.|||al\-|* le- lu\-|* ia,|al- le-|lu-|
 F,,16 |] %43
w: ia.|

